X: 2
T: The Old Maids Of Galway
R: reel
M: 4/4
L: 1/8
K: Bmin
dc|BF (3FFF BFAF|E2 DE FAdc|BF (3FFF BFAF|(3EFE DE FDDA|
BF (3FFF BFAF|E2 DE FAAd|~B3 c dBAF|(3EEE DE FDDA||
dfed B2 AB|dfed Be (3eee|defd BdAF|(3EFE DE FDDA|
dfed B2 AB|defd edeg|faec dBAF|(3EFE DE FDDA||


Tune 976	Setting 976

